X:213
T:Fieldtown Processional
M:4/4
L:1/4
K:G
c | BA BG | AA A2 | cB/2c/2 Ac |
BG G2 | B/2c/2d ef | gd ec | BG AF | G2 G :|
g2 gf | fe e2 | aa ag | fd d2 |
gf gf | ed eg | fd e^c | d2 dc |
BA BG | AA A2 | cB/2c/2 Ac |
BG G2 | B/2c/2d ef | gd ec | BG AF | G2 G ||
